X: 15369
T: Glasgow Of The Big Shops
R: reel
M: 4/4
K: Amixolydian
a2 ge a ~A3|d2 fg ~e3 d|c2 Bc decA|B2 AG ~G2 B/c/d|
a2 ge a ~A3|d2 fg e3 d|c2 Bc decA|1 ~B2 AG A2 z2:|2 B2 AG A2 B/c/d||
|:e3 d c3 d|eede cAAB|cABc decA|B2AG ~G2 B/c/d|
~e3 d c3 d|eede cAAB|cABc decA|1 ~B2 AG A2 B/c/d:|2 ~B2 AG A2 z2||

